X:3
T:The Campbeltown Kiltie Ball
R:Strathspey
C:Pipe-Major John McLellan, Dunoon
M:C
L:1/8
K:D
[| {g}A>B {G}A>B {g}c<e {A}e2 | {g}f>g {fg}f>e {g}f<a {g}a2 | A>B {G}A>B {g}c<e {A}e>c | {g}e>f {gef}e>c {g}B2 {GdGe}B>{d}c | 
{g}A>B {G}A>B {g}c<e {A}e2 | {g}f>g {fg}f>e {g}f<a {g}a>e | {ag}a>g {fg}f>e {g}f>g {ag}a>f | {gef}e>c {g}B<{d}c {e}A2 {gGAG}A>e |]
{ag}a2 {g}a>e {g}f2 {g}f<a | e>f {gef}e>B {g}c<e {A}e>f | {ag}a2 {g}a>f {gf}g>a {f}g>e | {g}f>g {ag}a>f {gef}e>d {gcd}c>B |
{g}A>B {G}A>B {g}c<e {A}e2 | {gde}d>c {Gdc}d>e {g}f<a {g}a>e | {ag}a>g {fg}f>e {g}f>g {ag}a>f | {gef}e>c {g}B<{d}c {e}A4 |]
